X:1
T:[ID 3-13b]
T:[ID 3-13b]
T:Bezeichnung standardisiert: Polonaise Polonoise 9.
T:Urheber unbekannt Datum in der hier transkribierten schriftlichen Quelle: 1767
C:Urheber unbekannt
C:Datum in der hier transkribierten schriftlichen Quelle: 1767
%%score 1 2
L:1/8
M:3/4
K:D
V:1 treble nm="Primo"
V:2 treble nm="Secondo"
V:1
 df/d/ A2 g2 | fe/d/ c/d/e/c/ A2 | df/d/ A2 g2 | f/e/d/c/ d2 D2 :: d/e/f/g/ aa Ta2 | %5
 b/a/g/f/ g2 e2 | c/d/e/f/ gg g2 | a/g/f/e/ f2 d2 | df/d/ A2 g2 | fe/d/ c/d/e/c/ A2 | df/d/ A2 g2 | %11
 f/e/d/c/ d2 D2 :| %12
V:2
 !fermata!FA/G/ F2 e2 | dc/B/ A/^G/A/B/ c2 | FA/G/ F2 e2 | d/F/G/E/ F2 F2 :: d/c/d/e/ ff Tf2 | %5
 g/f/e/d/ e2 c2 | A/B/c/d/ ee e2 | f/e/d/c/ d2 F2 | FA/G/ F2 e2 | dc/B/ A/^G/A/B/ c2 | %10
 FA/G/ F2 e2 | d/F/G/E/ F2 F2 :| %12

